packages/tokens/icons/sso/size24Px.svg

<svg viewBox="0 0 24 24" fill="none" xmlns="http://www.w3.org/2000/svg" width="1em" height="1em"><path d="M18.3333 14.5C20.4444 14.5 21.5 12.3182 21.5 10.6818C21.5 8.74921 20.1107 7.15196 18.308 6.89864C18.0609 4.42729 16.0399 2.5 13.5833 2.5C11.512 2.5 9.7504 3.87016 9.10068 5.78133C9.01228 5.77562 8.92313 5.77273 8.83333 5.77273C6.85498 5.77273 5.19442 7.17894 4.7364 9.07697C3.47002 9.27727 2.5 10.4079 2.5 11.7727C2.5 13.279 3.27898 14.5 4.7364 14.5" stroke="currentColor" stroke-linecap="round" stroke-linejoin="round"/><path d="M19.5396 18.9166H20.0396C20.0396 18.78 19.9837 18.6494 19.885 18.5551L19.5396 18.9166ZM19.5396 18.9166L20.0396 18.9166V18.9167V18.9167V18.9169V18.917V18.9172V18.9175V18.9177V18.918V18.9184V18.9188V18.9192V18.9196V18.9201V18.9206V18.9212V18.9218V18.9224V18.923V18.9237V18.9244V18.9252V18.926V18.9268V18.9277V18.9285V18.9295V18.9304V18.9314V18.9324V18.9335V18.9346V18.9357V18.9368V18.938V18.9392V18.9405V18.9418V18.9431V18.9444V18.9458V18.9472V18.9486V18.9501V18.9516V18.9531V18.9546V18.9562V18.9578V18.9595V18.9611V18.9628V18.9646V18.9663V18.9681V18.97V18.9718V18.9737V18.9756V18.9775V18.9795V18.9815V18.9835V18.9855V18.9876V18.9897V18.9919V18.994V18.9962V18.9984V19.0007V19.0029V19.0052V19.0075V19.0099V19.0122V19.0146V19.0171V19.0195V19.022V19.0245V19.027V19.0296V19.0322V19.0348V19.0374V19.04V19.0427V19.0454V19.0482V19.0509V19.0537V19.0565V19.0593V19.0621V19.065V19.0679V19.0708V19.0738V19.0767V19.0797V19.0827V19.0858V19.0888V19.0919V19.095V19.0981V19.1012V19.1044V19.1076V19.1108V19.114V19.1173V19.1206V19.1238V19.1272V19.1305V19.1338V19.1372V19.1406V19.144V19.1475V19.1509V19.1544V19.1579V19.1614V19.1649V19.1685V19.1721V19.1756V19.1793V19.1829V19.1865V19.1902V19.1939V19.1976V19.2013V19.205V19.2088V19.2126V19.2163V19.2202V19.224V19.2278V19.2317V19.2356V19.2394V19.2434V19.2473V19.2512V19.2552V19.2591V19.2631V19.2671V19.2711V19.2752V19.2792V19.2833V19.2874V19.2915V19.2956V19.2997V19.3038V19.308V19.3122V19.3163V19.3205V19.3247V19.329V19.3332V19.3374V19.3417V19.346V19.3503V19.3546V19.3589V19.3632V19.3675V19.3719V19.3762V19.3806V19.385V19.3894V19.3938V19.3982V19.4027V19.4071V19.4116V19.416V19.4205V19.425V19.4295V19.434V19.4385V19.443V19.4476V19.4521V19.4567V19.4612V19.4658V19.4704V19.475V19.4796V19.4842V19.4888V19.4934V19.4981V19.5027V19.5074V19.512V19.5167V19.5214V19.526V19.5307V19.5354V19.5401V19.5448V19.5496V19.5543V19.559V19.5637V19.5685V19.5732V19.578V19.5828V19.5875V19.5923V19.5971V19.6019V19.6067V19.6115V19.6163V19.6211V19.6259V19.6307V19.6355V19.6403V19.6451V19.65V19.6548V19.6596V19.6645V19.6693V19.6742V19.679V19.6839V19.6887V19.6936V19.6985V19.7033V19.7082V19.7131V19.7179V19.7228V19.7277V19.7326V19.7374V19.7423V19.7472V19.7521V19.757V19.7619V19.7667V19.7716V19.7765V19.7814V19.7863V19.7912V19.7961V19.8009V19.8058V19.8107V19.8156V19.8205V19.8254V19.8302V19.8351V19.84V19.8449V19.8497V19.8546V19.8595V19.8644V19.8692V19.8741V19.879V19.8838V19.8887V19.8935V19.8984V19.9032V19.9081V19.9129V19.9177V19.9226V19.9274V19.9322V19.9371V19.9419V19.9467V19.9515V19.9563V19.9611V19.9659V19.9707V19.9755V19.9803V19.985V19.9898V19.9946V19.9993V20.0041V20.0088V20.0135V20.0183V20.023V20.0277V20.0324V20.0371V20.0418V20.0465V20.0512V20.0559V20.0605V20.0652V20.0699V20.0745V20.0791V20.0838V20.0884V20.093V20.0976V20.1022V20.1068V20.1113V20.1159V20.1205V20.125V20.1295V20.1341V20.1386V20.1431V20.1476V20.1521V20.1565V20.161V20.1655V20.1699V20.1743V20.1787V20.1832V20.1876V20.1919V20.1963V20.2007V20.205V20.2094V20.2137V20.218V20.2223V20.2266V20.2309V20.2351V20.2394V20.2436V20.2478V20.252V20.2562V20.2604V20.2646V20.2687V20.2729V20.277V20.2811V20.2852V20.2893V20.2933V20.2974V20.3014V20.3054V20.3094V20.3134V20.3174V20.3213V20.3253V20.3292V20.3331V20.337V20.3409V20.3447V20.3486V20.3524V20.3562V20.36V20.3638V20.3675V20.3713V20.375V20.3787V20.3824V20.386V20.3897V20.3933V20.3969V20.4005V20.4041V20.4076V20.4111V20.4147V20.4182V20.4216V20.4251V20.4285V20.4319V20.4353V20.4387V20.4421V20.4454V20.4487V20.452V20.4553V20.4585V20.4617V20.465V20.4681V20.4713V20.4744V20.4776V20.4807V20.4837V20.4868V20.4898V20.4928V20.4958V20.4988V20.5017V20.5046V20.5075V20.5104V20.5133V20.5161V20.5189V20.5216V20.5244V20.5271V20.5298V20.5325V20.5352V20.5378V20.5404V20.543V20.5455V20.548V20.5505V20.553V20.5555V20.5579V20.5603V20.5627V20.565V20.5673V20.5696V20.5719V20.5741V20.5763V20.5785V20.5807V20.5828V20.5849V20.587V20.589V20.5911V20.5931V20.595V20.597V20.5989V20.6007V20.6026V20.6044V20.6062V20.608V20.6097V20.6114V20.6131V20.6147V20.6163V20.6179V20.6195V20.621V20.6225V20.6239V20.6254V20.6268V20.6281V20.6295V20.6308V20.6321V20.6333V20.6345V20.6357V20.6369V20.638V20.6391V20.6401V20.6411V20.6421V20.6431V20.644V20.6449V20.6457V20.6466V20.6473C20.0396 20.9253 19.9056 21.1615 19.7489 21.3182C19.5922 21.4749 19.356 21.6089 19.078 21.6089H19.0774H19.0768H19.0761H19.0754H19.0746H19.0739H19.073H19.0722H19.0713H19.0704H19.0695H19.0685H19.0675H19.0664H19.0653H19.0642H19.0631H19.0619H19.0607H19.0594H19.0582H19.0569H19.0555H19.0541H19.0527H19.0513H19.0498H19.0483H19.0468H19.0453H19.0437H19.042H19.0404H19.0387H19.037H19.0353H19.0335H19.0317H19.0299H19.028H19.0261H19.0242H19.0222H19.0203H19.0183H19.0162H19.0142H19.0121H19.0099H19.0078H19.0056H19.0034H19.0012H18.9989H18.9966H18.9943H18.992H18.9896H18.9872H18.9848H18.9823H18.9799H18.9774H18.9748H18.9723H18.9697H18.9671H18.9645H18.9618H18.9591H18.9564H18.9537H18.951H18.9482H18.9454H18.9425H18.9397H18.9368H18.9339H18.931H18.928H18.9251H18.9221H18.919H18.916H18.9129H18.9098H18.9067H18.9036H18.9004H18.8973H18.8941H18.8908H18.8876H18.8843H18.881H18.8777H18.8744H18.8711H18.8677H18.8643H18.8609H18.8574H18.854H18.8505H18.847H18.8435H18.84H18.8364H18.8328H18.8292H18.8256H18.822H18.8183H18.8147H18.811H18.8073H18.8035H18.7998H18.796H18.7922H18.7884H18.7846H18.7808H18.7769H18.7731H18.7692H18.7653H18.7613H18.7574H18.7535H18.7495H18.7455H18.7415H18.7375H18.7334H18.7294H18.7253H18.7212H18.7171H18.713H18.7089H18.7047H18.7006H18.6964H18.6922H18.688H18.6838H18.6796H18.6753H18.6711H18.6668H18.6625H18.6582H18.6539H18.6496H18.6452H18.6409H18.6365H18.6321H18.6278H18.6234H18.6189H18.6145H18.6101H18.6056H18.6012H18.5967H18.5922H18.5877H18.5832H18.5787H18.5742H18.5696H18.5651H18.5605H18.556H18.5514H18.5468H18.5422H18.5376H18.533H18.5283H18.5237H18.5191H18.5144H18.5097H18.5051H18.5004H18.4957H18.491H18.4863H18.4816H18.4769H18.4722H18.4674H18.4627H18.4579H18.4532H18.4484H18.4436H18.4389H18.4341H18.4293H18.4245H18.4197H18.4149H18.4101H18.4053H18.4004H18.3956H18.3908H18.3859H18.3811H18.3762H18.3714H18.3665H18.3617H18.3568H18.3519H18.347H18.3422H18.3373H18.3324H18.3275H18.3226H18.3177H18.3128H18.3079H18.303H18.2981H18.2932H18.2883H18.2834H18.2784H18.2735H18.2686H18.2637H18.2588H18.2538H18.2489H18.244H18.2391H18.2341H18.2292H18.2243H18.2194H18.2144H18.2095H18.2046H18.1996H18.1947H18.1898H18.1849H18.1799H18.175H18.1701H18.1652H18.1603H18.1553H18.1504H18.1455H18.1406H18.1357H18.1308H18.1259H18.121H18.1161H18.1112H18.1063H18.1014H18.0965H18.0916H18.0867H18.0818H18.077H18.0721H18.0672H18.0624H18.0575H18.0527H18.0478H18.043H18.0381H18.0333H18.0285H18.0236H18.0188H18.014H18.0092H18.0044H17.9996H17.9948H17.99H17.9853H17.9805H17.9757H17.971H17.9662H17.9615H17.9568H17.952H17.9473H17.9426H17.9379H17.9332H17.9285H17.9238H17.9192H17.9145H17.9099H17.9052H17.9006H17.896H17.8914H17.8867H17.8822H17.8776H17.873H17.8684H17.8639H17.8593H17.8548H17.8503H17.8457H17.8412H17.8368H17.8323H17.8278H17.8233H17.8189H17.8145H17.81H17.8056H17.8012H17.7969H17.7925H17.7881H17.7838H17.7794H17.7751H17.7708H17.7665H17.7622H17.758H17.7537H17.7495H17.7452H17.741H17.7368H17.7326H17.7285H17.7243H17.7202H17.716H17.7119H17.7078H17.7038H17.6997H17.6956H17.6916H17.6876H17.6836H17.6796H17.6756H17.6717H17.6678H17.6638H17.6599H17.6561H17.6522H17.6483H17.6445H17.6407H17.6369H17.6331H17.6294H17.6256H17.6219H17.6182H17.6145H17.6108H17.6072H17.6036H17.6H17.5964H17.5928H17.5893H17.5857H17.5822H17.5787H17.5752H17.5718H17.5684H17.565H17.5616H17.5582H17.5549H17.5515H17.5482H17.5449H17.5417H17.5384H17.5352H17.532H17.5289H17.5257H17.5226H17.5195H17.5164H17.5133H17.5103H17.5073H17.5043H17.5013H17.4984H17.4955H17.4926H17.4897H17.4868H17.484H17.4812H17.4784H17.4757H17.473H17.4703H17.4676H17.4649H17.4623H17.4597H17.4572H17.4546H17.4521H17.4496H17.4471H17.4447H17.4423H17.4399H17.4375H17.4352H17.4329H17.4306H17.4283H17.4261H17.4239H17.4218H17.4196H17.4175H17.4154H17.4134H17.4113H17.4093H17.4074H17.4054H17.4035H17.4016H17.3998H17.3979H17.3962H17.3944H17.3927H17.3909H17.3893H17.3876H17.386H17.3844H17.3829H17.3814H17.3799H17.3784H17.377H17.3756H17.3742H17.3729H17.3716H17.3703H17.3691H17.3679H17.3667H17.3656H17.3645H17.3634H17.3624H17.3614H17.3604H17.3594H17.3585H17.3577H17.3568H17.356H17.3553H17.3545H17.3538H17.3532H17.3525H17.3519H17.3514H17.3508H17.3503H17.3499H17.3495H17.3491H17.3487H17.3484H17.3482H17.3479H17.3477H17.3475H17.3474H17.3473H17.3473L17.3472 21.1089M19.5396 18.9166L19.885 18.5551L19.8849 18.555L19.8845 18.5546L19.8828 18.553L19.8763 18.5468L19.8506 18.5222L19.7515 18.4274L19.3867 18.078C19.0783 17.7824 18.6517 17.3729 18.1788 16.9173C17.2322 16.0055 16.1029 14.9118 15.3644 14.1774C15.198 14.012 15.1907 13.8118 15.2055 13.5041C15.2069 13.4732 15.2075 13.4429 15.2079 13.4222C15.2079 13.4191 15.208 13.4163 15.208 13.4136C15.2085 13.389 15.2089 13.3799 15.2093 13.3752C15.3136 12.079 14.9847 10.8874 14.2623 10.0114C13.5344 9.12867 12.441 8.60889 11.1121 8.60889C8.58628 8.60889 7.03955 10.7084 7.03955 12.5733C7.03955 13.4411 7.22213 14.5735 7.90782 15.4875C8.61462 16.4297 9.79611 17.0607 11.6162 17.0083C11.7033 17.008 11.7918 17.0039 11.8699 17.0003L11.8753 17.0001C11.9651 16.996 12.0585 16.9862 12.136 16.9782C12.1491 16.9768 12.1617 16.9755 12.1737 16.9743C12.2652 16.965 12.3386 16.9587 12.4059 16.9583C12.5373 16.9576 12.5963 16.9801 12.636 17.0097C12.6352 17.0091 12.6348 17.0088 12.6348 17.0088C12.6347 17.0089 12.6429 17.0154 12.6629 17.0332C12.6843 17.0522 12.7122 17.0777 12.7466 17.1099C12.8154 17.1741 12.9034 17.2582 13.0059 17.3566C13.043 17.3923 13.0818 17.4296 13.1222 17.4684C13.3027 17.6421 13.512 17.8434 13.7192 18.0379C13.8854 18.1939 14.088 18.2209 14.2329 18.2132C14.3174 18.2087 14.4015 18.192 14.483 18.1686C14.4575 18.2573 14.4381 18.3539 14.4332 18.4534C14.4243 18.6326 14.4615 18.8841 14.6675 19.0797C14.6689 19.0811 14.6704 19.0824 14.6719 19.0839C14.7407 19.1493 14.9079 19.3083 15.1769 19.3487C15.3021 19.3674 15.4265 19.3579 15.5499 19.3272C15.523 19.3936 15.4927 19.4881 15.489 19.5995C15.4841 19.7455 15.5257 19.8889 15.6147 20.0141C15.6655 20.0855 15.7937 20.2225 15.9081 20.3435C16.0393 20.4823 16.2036 20.6528 16.3635 20.8176C16.5236 20.9827 16.6804 21.1432 16.7972 21.2623L16.9378 21.4056L16.977 21.4455L16.9874 21.4561L16.9901 21.4588L16.9908 21.4595L16.9909 21.4597L16.991 21.4597L17.3472 21.1089M17.3472 21.1089V21.6089C17.2133 21.6089 17.085 21.5552 16.991 21.4597L17.3472 21.1089ZM10.6121 11.6473C10.6121 11.9194 10.3896 12.1447 10.1091 12.1447C9.82867 12.1447 9.60612 11.9194 9.60612 11.6473C9.60612 11.3753 9.82867 11.15 10.1091 11.15C10.3896 11.15 10.6121 11.3753 10.6121 11.6473Z" stroke="currentColor" stroke-linecap="round" stroke-linejoin="round"/></svg>

<svg xmlns="http://www.w3.org/2000/svg" fill="none" viewBox="0 0 24 24" width="1em" height="1em"><path stroke="currentColor" stroke-linecap="round" stroke-linejoin="round" d="M18.333 14.5c2.111 0 3.167-2.182 3.167-3.818 0-1.933-1.39-3.53-3.192-3.783C18.061 4.427 16.04 2.5 13.583 2.5c-2.071 0-3.833 1.37-4.482 3.281a4.147 4.147 0 0 0-.268-.008c-1.978 0-3.639 1.406-4.097 3.304-1.266.2-2.236 1.33-2.236 2.696 0 1.506.779 2.727 2.236 2.727"/><path stroke="currentColor" stroke-linecap="round" stroke-linejoin="round" d="M19.54 18.917h.5a.5.5 0 0 0-.155-.362l-.345.362Zm0 0h.5v1.73a.962.962 0 0 1-.291.671.962.962 0 0 1-.671.29h0-.001 0-.002 0-.002 0-.002 0-.002 0-.002 0-.002 0-.006 0-.004 0-1.685 0-.006 0-.002 0-.002 0-.002 0-.002 0-.002 0-.002 0-.001 0-.001 0-.001 0-.001 0v-.5m2.192-2.191.345-.362h0l-.002-.002-.007-.006-.025-.025-.1-.095-.364-.349a665.76 665.76 0 0 1-1.208-1.16 284.136 284.136 0 0 1-2.815-2.74c-.166-.166-.173-.366-.159-.674l.003-.082v-.008l.001-.039c.105-1.296-.224-2.488-.947-3.364-.728-.882-1.821-1.402-3.15-1.402-2.526 0-4.072 2.1-4.072 3.964 0 .868.182 2 .868 2.915.707.942 1.888 1.573 3.708 1.52.087 0 .176-.004.254-.008h.005c.09-.004.184-.014.261-.022a5.581 5.581 0 0 1 .27-.02c.131 0 .19.022.23.052l-.001-.001.028.024.084.077a27.293 27.293 0 0 1 .375.358c.18.174.39.375.597.57a.685.685 0 0 0 .514.175 1.13 1.13 0 0 0 .25-.044 1.262 1.262 0 0 0-.05.284.79.79 0 0 0 .235.627l.004.004c.069.065.236.224.505.265a.95.95 0 0 0 .373-.022.797.797 0 0 0-.061.272.67.67 0 0 0 .126.415c.05.072.179.209.293.33.131.138.296.309.455.474l.434.444.14.144.04.04.01.01.003.003h.001l.356-.35m0 0v.5a.5.5 0 0 1-.356-.15l.356-.35Zm-6.735-9.462a.5.5 0 0 1-.503.498.5.5 0 0 1-.503-.498.5.5 0 0 1 .503-.497.5.5 0 0 1 .503.497Z"/></svg>
